dist/images/navbar_adminui.svg

<?xml version="1.0" encoding="UTF-8" standalone="no"?>
<svg width="277px" height="111px" viewBox="0 0 277 111" version="1.1" xmlns="http://www.w3.org/2000/svg" xmlns:xlink="http://www.w3.org/1999/xlink" xmlns:sketch="http://www.bohemiancoding.com/sketch/ns">
    <!-- Generator: Sketch 3.5.1 (25234) - http://www.bohemiancoding.com/sketch -->
    <title>Untitled</title>
    <desc>Created with Sketch.</desc>
    <defs></defs>
    <g id="Page-1" stroke="none" stroke-width="1" fill="none" fill-rule="evenodd" sketch:type="MSPage">
        <g id="Main-Navigation" sketch:type="MSLayerGroup" transform="translate(0.000000, 79.000000)" fill="#898989" fill-opacity="0.265285326">
            <rect id="Rectangle-3" sketch:type="MSShapeGroup" x="0" y="0" width="277" height="22"></rect>
        </g>
        <path d="M64.0627398,23.8916503 C63.7122932,20.4038182 62.8361769,17.2647692 61.7848373,14.6488951 C61.7848373,14.5616993 61.6096141,14.3001119 61.6096141,14.2129161 C60.6458861,12.2074126 59.5069349,10.3763007 58.1927604,9.06836364 C55.7396348,6.53968531 52.7608393,5.14455245 49.4315973,5.05735664 L49.3439857,5.05735664 C48.8183159,3.92381119 47.3289181,3.13904895 46.1023553,2.96465734 C46.1023553,2.96465734 45.3138506,0 42.1598319,0 C39.0058131,0 38.2173084,2.96465734 38.2173084,2.96465734 C36.903134,3.13904895 35.5013479,3.92381119 34.9756781,5.05735664 L34.8880664,5.05735664 C31.5588244,5.05735664 28.580029,6.45248951 26.1269033,9.06836364 C24.8127288,10.4634965 23.6737776,12.2074126 22.7100497,14.2129161 C22.7100497,14.2129161 22.5348264,14.5616993 22.5348264,14.6488951 C21.3958752,17.2647692 20.5197589,20.4038182 20.256924,23.8916503 C18.4170797,41.1564196 26.5649614,62.345 41.2837156,65.5712448 C41.4589388,65.920028 42.0722202,66.5303986 42.3350551,66.5303986 C42.59789,66.5303986 43.1235598,65.920028 43.3863947,65.5712448 C57.7547023,62.2578042 65.902584,41.1564196 64.0627398,23.8916503 L64.0627398,23.8916503 L64.0627398,23.8916503 Z" id="Crest-path" fill="#D8D8D8" sketch:type="MSShapeGroup"></path>
    </g>
</svg>

<svg width="277" height="111" viewBox="0 0 277 111" xmlns="http://www.w3.org/2000/svg"><title>Untitled</title><desc>Created with Sketch.</desc><g fill="none"><path d="M0 79h277v22H0z" fill="#898989" fill-opacity=".265"/><path d="M64.063 23.892c-.35-3.488-1.227-6.627-2.278-9.243 0-.088-.175-.35-.175-.437-.964-2.006-2.103-3.837-3.417-5.145-2.453-2.528-5.432-3.923-8.76-4.01h-.09c-.525-1.134-2.014-1.92-3.24-2.093 0 0-.79-2.965-3.943-2.965-3.154 0-3.943 2.965-3.943 2.965-1.314.174-2.716.96-3.24 2.092h-.09c-3.328 0-6.307 1.395-8.76 4.01-1.314 1.396-2.453 3.14-3.417 5.146 0 0-.175.35-.175.436-1.14 2.615-2.015 5.754-2.278 9.242-1.84 17.264 6.308 38.453 21.027 41.68.175.348.788.958 1.05.958.264 0 .79-.61 1.052-.96 14.37-3.312 22.517-24.414 20.677-41.678z" fill="#D8D8D8"/></g></svg>
